X: 95
T: Northward They Are Walking
C: Teton Sioux band 1911-1914
N: Derived from sioux095.krn
O: South Dakota, U.S.A.
N: Teton Sioux Music by Frances Densmore, 1918
Z: transcribed to **kern format by Craig Sapp
L: 1/8
M: 3/4
Q: 1/4=58
K: Gb clef=bass
%%linebreak <none>
F/ [I:setbarnb 1]| 
F> FF2(E/ D/) D | 
(E/ B,/) B, B,> B, B,3/ B,/ ||  
[M:2/4]E> E (E/ D3/) | 
(E/ B,/) B, B,3/ E/ | 
(3(E B,) B, (B,/ G,3/) | 
B, B,/ B,/ (3(B, G,) G, | 
G,2G,3/ G,/ ||  
[M:3/4]B,4(3:2:1B, C (3:2:1C/ ||  
[M:2/4]B,3G, ||  
[M:3/4]B,4(3:2:1B, C (3:2:1C/ | 
B,6 |]  



